X: 34603
T: Riverdance
R: jig
M: 6/8
K: Eminor
|:LEBA LFG/F/G|[M:4/4] LFELDE LFDLB,D|[M:6/8]LEFG LAB/A/B|[M:4/4]LAGLFG LFGLAB|
[M:6/8]LcBA LcBA|[M:4/4]LBALGF LGALGF|[M:12/8]LE^cA LEdB LE^cA LEdE|[M:2/4]LBA GA:|
|:[M:6/8]LBDD LBDD|[M:4/4]LcELcE LcELcE|[M:6/8]LBDD LBDD|[M:4/4]LcELcE LcELcE|
[M:6/8]LBAG LFA/G/F|[M:4/4]LEFGA LBAGF|[M:12/8]LAFD LBGE LAFD LBGF|[M:2/4]LFG AB:|
|:LEBA LFG/F/G|[M:4/4] LFELDE LFDLB,D|[M:6/8]LEFG LAB/A/B|[M:4/4]LAGLFG LFGLAB|
[M:6/8]LcBA LcBA|[M:4/4]LBALGF LGALGF|[M:12/8]LE^cA LEdB LE^cA LEdB|[M:2/4]LBA GA:|
|:[M:6/8]LBDD LBDD|[M:4/4]LcELcE LcELcE|[M:6/8]LBDD LBDD|[M:4/4]LcELcE LcELcE|
[M:6/8]LBAG LFA/G/F|[M:4/4]LEFGA LBAGF|[M:12/8]LAFD LBGE LAFD LBGF|[M:2/4]LFG AB:|
[M:12/8]e12-|e12|e12-|e12|
|:[M:6/8]LEBA LFG/F/G|LFED LEFD|LB,DE LFGA|LBBA LGFG|
LFGA LBcB|LAcB LAGA|LGFG LAGF|LE^cA LEdB:|
|:LBDD LBDD|LcELc ELcE|LBDD LBDD|LcELc ELcE|
LcBA LGA/G/F|LEFG LABD|LCGG LCGG|LDEF LGAc:|
|:LEBA LFG/F/G|LFED LEFD|LB,DE LFGA|LB/A/BA LGFG|
LFGA LBcB|LAcB LAGA|LGFG LAGF|LE^cA LEdB:|
|:LBDD LBDD|LcELc ELcE|LBDD LBDD|LcELc ELcE|
LcBA LGA/G/F|LEFG LABD|LCDG LCDG|LDEF LGAc:|
[M:12/8]LBBB BBB LBBB BBB|LeeLe eLee Leee eee|
LbbLb bLbb Lbbb bbb|Le'e'e' Le'e'e' Le'2 zz3||

